icons/themes/default/team.svg

<svg viewBox="0 0 16 16" fill="none" xmlns="http://www.w3.org/2000/svg">
<path fill-rule="evenodd" clip-rule="evenodd" d="M9.06784 1.72779C9.49543 1.30021 10.0754 1.06 10.68 1.06C11.2847 1.06 11.8647 1.30021 12.2923 1.72779C12.7198 2.15538 12.96 2.7353 12.96 3.34C12.96 3.94469 12.7198 4.52462 12.2923 4.9522C11.8647 5.37978 11.2847 5.62 10.68 5.62C10.0754 5.62 9.49543 5.37978 9.06784 4.9522C8.64026 4.52462 8.40005 3.94469 8.40005 3.34C8.40005 2.7353 8.64026 2.15538 9.06784 1.72779ZM10.68 2.06C10.3406 2.06 10.015 2.19485 9.77495 2.4349C9.5349 2.67495 9.40005 3.00052 9.40005 3.34C9.40005 3.67947 9.5349 4.00505 9.77495 4.24509C10.015 4.48514 10.3406 4.62 10.68 4.62C11.0195 4.62 11.3451 4.48514 11.5851 4.24509C11.8252 4.00505 11.96 3.67947 11.96 3.34C11.96 3.00052 11.8252 2.67495 11.5851 2.4349C11.3451 2.19485 11.0195 2.06 10.68 2.06ZM5.11999 3.28C4.5153 3.28 3.93537 3.52021 3.50779 3.9478C3.0802 4.37538 2.83999 4.95531 2.83999 5.56C2.83999 6.16469 3.0802 6.74462 3.50779 7.1722C3.93537 7.59979 4.5153 7.84 5.11999 7.84C5.72468 7.84 6.30461 7.59979 6.73219 7.1722C7.15978 6.74462 7.39999 6.16469 7.39999 5.56C7.39999 4.95531 7.15978 4.37538 6.73219 3.9478C6.30461 3.52021 5.72468 3.28 5.11999 3.28ZM4.21489 4.6549C4.45494 4.41486 4.78051 4.28 5.11999 4.28C5.45947 4.28 5.78504 4.41486 6.02509 4.6549C6.26513 4.89495 6.39999 5.22052 6.39999 5.56C6.39999 5.89948 6.26513 6.22505 6.02509 6.4651C5.78504 6.70514 5.45947 6.84 5.11999 6.84C4.78051 6.84 4.45494 6.70514 4.21489 6.4651C3.97485 6.22505 3.83999 5.89948 3.83999 5.56C3.83999 5.22052 3.97485 4.89495 4.21489 4.6549ZM5.11998 9.06429C4.14796 9.06429 3.19914 9.36124 2.40056 9.9154C1.60198 10.4696 0.991754 11.2545 0.651595 12.165L0.651592 12.165L0.650982 12.1667C0.37621 12.9102 0.813036 13.702 1.52301 13.9347C3.85486 14.7134 6.37665 14.7133 8.70842 13.9342L8.70842 13.9342L8.71111 13.9333C9.41606 13.6933 9.86753 12.9204 9.58898 12.1667L9.58836 12.165C9.2482 11.2545 8.63798 10.4696 7.8394 9.9154C7.04082 9.36124 6.092 9.06429 5.11998 9.06429ZM2.97067 10.737C3.60183 10.299 4.35174 10.0643 5.11998 10.0643C5.88822 10.0643 6.63813 10.299 7.26929 10.737C7.90016 11.1747 8.3823 11.7947 8.65122 12.514C8.7121 12.6799 8.62388 12.906 8.38997 12.9863C6.26381 13.6963 3.96449 13.6961 1.83842 12.9858L1.83499 12.9846C1.62638 12.9166 1.52425 12.6897 1.58874 12.514C1.85766 11.7947 2.3398 11.1748 2.97067 10.737ZM12.1552 7.07578C11.4737 6.85471 10.7512 6.78998 10.0412 6.8864C9.33132 6.98283 8.65224 7.23794 8.05442 7.63278C7.824 7.78497 7.76058 8.09513 7.91277 8.32555C8.06495 8.55597 8.37512 8.6194 8.60554 8.46721C9.07803 8.15514 9.61474 7.95352 10.1758 7.87731C10.7369 7.80109 11.308 7.85225 11.8466 8.02698C12.3852 8.20171 12.8775 8.49553 13.287 8.88661C13.6961 9.27728 14.012 9.755 14.2114 10.2843C14.272 10.4503 14.1837 10.6762 13.9498 10.7563C13.0987 11.0413 12.2141 11.2143 11.3184 11.271C11.0428 11.2884 10.8335 11.526 10.851 11.8016C10.8684 12.0772 11.106 12.2864 11.3816 12.269C12.3644 12.2068 13.335 12.0169 14.2688 11.7041L14.2711 11.7033C14.9761 11.4633 15.4275 10.6904 15.149 9.93667L15.149 9.93667L15.148 9.934C14.8958 9.26341 14.4958 8.65824 13.9777 8.16342C13.4596 7.66861 12.8366 7.29686 12.1552 7.07578Z" fill="currentColor"/>
</svg>

<svg xmlns="http://www.w3.org/2000/svg" fill="none" viewBox="0 0 16 16">
  <path fill="currentColor" fill-rule="evenodd" d="M9.068 1.728a2.28 2.28 0 1 1 3.224 3.224 2.28 2.28 0 0 1-3.224-3.224Zm1.612.332a1.28 1.28 0 1 0 0 2.56 1.28 1.28 0 0 0 0-2.56ZM5.12 3.28a2.28 2.28 0 1 0 0 4.56 2.28 2.28 0 0 0 0-4.56Zm-.905 1.375a1.28 1.28 0 1 1 1.81 1.81 1.28 1.28 0 0 1-1.81-1.81Zm.905 4.41a4.77 4.77 0 0 0-4.468 3.1l-.001.002c-.275.743.162 1.535.872 1.768a11.34 11.34 0 0 0 7.185 0l.003-.002c.705-.24 1.157-1.013.878-1.766v-.002a4.77 4.77 0 0 0-4.469-3.1Zm-2.15 1.672a3.77 3.77 0 0 1 5.681 1.777c.061.166-.027.392-.261.472a10.34 10.34 0 0 1-6.552 0l-.003-.001c-.209-.068-.31-.295-.246-.471a3.77 3.77 0 0 1 1.382-1.777Zm9.185-3.661a4.77 4.77 0 0 0-4.1.557.5.5 0 1 0 .55.834 3.77 3.77 0 0 1 5.606 1.817c.061.166-.027.392-.261.472-.851.285-1.736.458-2.632.515a.5.5 0 1 0 .064.998 11.346 11.346 0 0 0 2.887-.565h.002c.705-.24 1.156-1.014.878-1.767l-.001-.003a4.77 4.77 0 0 0-2.993-2.858Z" clip-rule="evenodd"/>
</svg>
